X:499
T:Cumberland Militia Quick Step,The. RH.499
R:jig
S:Rev.R.Harrison’s MS,c1815,Cumbria
O:England
A:Temple Sowerby,Cumbria
Z:vmp.Simon Wilson. Review PJH, 2008.
M:6/8
L:1/8
Q:3/8=100
K:G
B/c/|d>ed def|g>ag gfe|d>ed dcB|BAA A2B/c/|\
d>ed def|g>ag gfe|d>ed cBA|G>AG A2:|!
” F”b|a2f d2d|b2g d2d|d>ed c>dc|B>cB A2b|\
a2fd2a|b2gd2b|abg fge|dec”$”B2||!
A|G>GG G2A|B3 G2A|B>BB B2c|d3 B2c|\
d2g e2a|f2a g2c’|b>ag g>fe|e>dc ” DC”B2|]

